X:105
T:First Month of Summer
Z: id:dc-reel-97
M:C
L:1/8
K:D Major
e|dBB2 A2FA|d2d^c defe|dBB2 A2FA|Beed effe|!
dBB2 A2FA|d2d^c defg|affe f2ed|BABc def:|!
g|aff2 afbf|afef afe2|afef a3e|fgfe dBAf|!
aff2 afbf|afef afe2|faa2 fbb2|affe f3:|!

